client/assets/images/customer-home/illustration--checklist-complete.svg

<svg width="172" height="145" viewBox="0 0 172 145" fill="none" xmlns="http://www.w3.org/2000/svg">
<path d="M85.5914 32.6924C40.6784 32.6924 4.26929 69.1015 4.26929 114.015C4.26929 124.546 6.27117 134.61 9.91517 143.846L161.192 144.036C164.884 134.748 166.914 124.618 166.914 114.015C166.914 69.1015 130.504 32.6924 85.5914 32.6924Z" fill="#E6F2E8"/>
<circle cx="84.9398" cy="27.3728" r="8.57473" fill="#C3C4C7"/>
<rect x="37.7788" y="29.4231" width="94.8077" height="114.423" rx="8" fill="#F5F1E1" stroke="#01283d"/>
<rect x="47.0865" y="33.8269" width="77.0096" height="94.1731" fill="white" stroke="#C3C4C7" stroke-linecap="round" stroke-linejoin="round"/>
<line x1="74.6143" y1="60.6716" x2="113.48" y2="60.6716" stroke="#02395c" stroke-width="2" stroke-linecap="round"/>
<line x1="74.6143" y1="76.3921" x2="98.7681" y2="76.3921" stroke="#02395c" stroke-width="2" stroke-linecap="round"/>
<line x1="74.6143" y1="92.1123" x2="105.307" y2="92.1123" stroke="#02395c" stroke-width="2" stroke-linecap="round"/>
<path d="M55.75 59.8854L59.561 63.8155L67.183 55.9553" stroke="#02395c" stroke-width="2" stroke-linecap="round"/>
<path d="M55.75 75.6056L59.561 79.5357L67.183 71.6755" stroke="#02395c" stroke-width="2" stroke-linecap="round"/>
<path d="M55.75 91.3258L59.561 95.2559L67.183 87.3958" stroke="#02395c" stroke-width="2" stroke-linecap="round"/>
<path d="M80.1459 22.3707C81.3234 21.055 83.0347 20.2271 84.9394 20.2271C86.844 20.2271 88.5553 21.055 89.7329 22.3707" stroke="#F6F7F7" stroke-linecap="round"/>
<path d="M56.8574 31.8C56.8574 27.6579 60.2153 24.3 64.3574 24.3H105.522C109.664 24.3 113.022 27.6579 113.022 31.8V36.1621H56.8574V31.8Z" fill="#F6F7F7" stroke="#C3C4C7"/>
<path d="M56.3574 33.9438C56.3574 29.5256 59.9391 25.9438 64.3574 25.9438H105.522C109.941 25.9438 113.522 29.5256 113.522 33.9438V36.6623H56.3574V33.9438Z" fill="#C3C4C7"/>
<path d="M15.2857 23.3971C15.0591 22.4551 14.1525 21.5131 13.2459 21.2776L5.76649 18.4516C4.8599 18.2162 4.8599 17.7452 5.76649 17.2742L13.2459 14.4482C14.1525 14.4482 15.0591 13.5062 15.2857 12.5643L18.0055 4.79291C18.2322 3.85093 18.6854 3.85093 19.1387 4.79291L21.8585 12.5643C22.0852 13.5062 22.9918 14.4482 23.8984 14.6837L31.3778 17.5097C32.2843 17.7452 32.2843 18.2162 31.3778 18.6871L23.6717 21.2776C22.7651 21.5131 21.8585 22.4551 21.6319 23.3971L18.9121 31.1684C18.6854 32.1104 18.2322 32.1104 17.7789 31.1684L15.2857 23.3971Z" fill="#F0C930"/>
<path d="M158.452 7.90053L156.288 8.99027L157.25 6.53835L156.288 4.08643L158.452 5.17617L160.375 4.08643L159.413 6.53835L160.375 8.99027L158.452 7.90053Z" fill="#F0C930"/>
<path d="M128.349 6.75279C127.905 6.5306 127.238 6.5306 127.016 6.75279L124.128 8.08591C123.683 8.3081 123.461 8.08591 123.683 7.64154L125.016 4.7531C125.239 4.30873 125.239 3.64216 125.016 3.41998L123.683 0.53154C123.461 0.0871652 123.683 -0.135022 124.128 0.0871652L127.016 1.42029C127.46 1.64248 128.127 1.64248 128.349 1.42029L131.238 0.0871652C131.682 -0.135022 131.904 0.0871652 131.682 0.53154L130.349 3.41998C130.127 3.86435 130.127 4.53091 130.349 4.7531L131.682 7.64154C131.904 8.08591 131.682 8.3081 131.238 8.08591L128.349 6.75279Z" fill="#044b7a"/>
<path d="M47.0938 11.5558C46.605 11.3179 45.8717 11.3179 45.6273 11.5558L42.45 12.9835C41.9612 13.2214 41.7168 12.9835 41.9612 12.5076L43.4277 9.4144C43.6721 8.93853 43.6721 8.22471 43.4277 7.98677L41.9612 4.65565C41.7168 4.17977 41.9612 3.94183 42.45 4.17977L45.6273 5.6074C46.1161 5.84533 46.8494 5.84533 47.0938 5.6074L50.271 4.17977C50.7599 3.94183 51.0043 4.17977 50.7599 4.65565L49.2934 7.74884C48.8046 8.22471 48.8046 8.93853 49.049 9.4144L50.5155 12.5076C50.7599 12.9835 50.5155 13.2214 50.0266 12.9835L47.0938 11.5558Z" fill="#D48FC8"/>
<path d="M12.9365 56.2233C12.7084 55.7671 12.2523 55.3109 11.7961 55.0828L9.51522 54.1705C9.05905 53.9424 9.05905 53.7143 9.51522 53.7143L11.7961 52.802C12.2523 52.5739 12.7084 52.1177 12.9365 51.6616L13.8489 49.3807C14.0769 48.9245 14.305 48.9245 14.305 49.3807L15.2174 51.6616C15.4455 52.1177 15.9016 52.5739 16.3578 52.802L18.6387 53.7143C19.0948 53.9424 19.0948 54.1705 18.6387 54.1705L16.3578 55.0828C15.9016 55.3109 15.4455 55.7671 15.2174 56.2233L14.305 58.5041C14.0769 58.9603 13.8489 58.9603 13.8489 58.5041L12.9365 56.2233Z" fill="#399ce3"/>
<path d="M1 143.846H171" stroke="#01283d" stroke-linecap="round" stroke-linejoin="round"/>
<circle cx="126.048" cy="124.231" r="19.1154" fill="#00A32A" stroke="#01283d"/>
<path d="M117.875 124.639L123.324 129.952L134.221 119.327" stroke="white" stroke-width="2" stroke-linecap="round"/>
</svg>

<svg width="172" height="145" fill="none" xmlns="http://www.w3.org/2000/svg"><path d="M85.591 32.692c-44.913 0-81.322 36.41-81.322 81.323 0 10.531 2.002 20.595 5.646 29.831l151.277.19c3.692-9.288 5.722-19.418 5.722-30.021 0-44.913-36.41-81.323-81.323-81.323z" fill="#E6F2E8"/><circle cx="84.94" cy="27.373" r="8.575" fill="#C3C4C7"/><rect x="37.779" y="29.423" width="94.808" height="114.423" rx="8" fill="#F5F1E1" stroke="#01283d"/><path fill="#fff" stroke="#C3C4C7" stroke-linecap="round" stroke-linejoin="round" d="M47.087 33.827h77.01V128h-77.01z"/><path stroke="#02395c" stroke-width="2" stroke-linecap="round" d="M74.614 60.672h38.866M74.614 76.392h24.154M74.614 92.112h30.693M55.75 59.885l3.811 3.93 7.622-7.86M55.75 75.606l3.811 3.93 7.622-7.86M55.75 91.326l3.811 3.93 7.622-7.86"/><path d="M80.146 22.37a6.415 6.415 0 014.793-2.143c1.905 0 3.616.828 4.794 2.144" stroke="#F6F7F7" stroke-linecap="round"/><path d="M56.857 31.8a7.5 7.5 0 017.5-7.5h41.165a7.5 7.5 0 017.5 7.5v4.362H56.857V31.8z" fill="#F6F7F7" stroke="#C3C4C7"/><path d="M56.357 33.944a8 8 0 018-8h41.165a8 8 0 018 8v2.718H56.357v-2.718z" fill="#C3C4C7"/><path d="M15.286 23.397c-.227-.942-1.133-1.884-2.04-2.12l-7.48-2.825c-.906-.236-.906-.707 0-1.178l7.48-2.826c.906 0 1.813-.942 2.04-1.884l2.72-7.771c.226-.942.68-.942 1.133 0l2.72 7.771c.226.942 1.133 1.884 2.04 2.12l7.479 2.826c.906.235.906.706 0 1.177l-7.706 2.59c-.907.236-1.814 1.178-2.04 2.12l-2.72 7.771c-.227.942-.68.942-1.133 0l-2.493-7.77zM158.452 7.9l-2.164 1.09.962-2.452-.962-2.452 2.164 1.09 1.923-1.09-.962 2.452.962 2.452-1.923-1.09z" fill="#F0C930"/><path d="M128.349 6.753c-.444-.222-1.111-.222-1.333 0l-2.888 1.333c-.445.222-.667 0-.445-.444l1.333-2.889c.223-.444.223-1.11 0-1.333L123.683.532c-.222-.445 0-.667.445-.445l2.888 1.333c.444.222 1.111.222 1.333 0l2.889-1.333c.444-.222.666 0 .444.445l-1.333 2.888c-.222.444-.222 1.11 0 1.333l1.333 2.889c.222.444 0 .666-.444.444l-2.889-1.333z" fill="#044b7a"/><path d="M47.094 11.556c-.489-.238-1.222-.238-1.467 0l-3.177 1.428c-.489.237-.733 0-.489-.476l1.467-3.094c.244-.475.244-1.19 0-1.427L41.96 4.656c-.244-.476 0-.714.489-.476l3.177 1.427c.49.238 1.222.238 1.467 0L50.27 4.18c.489-.238.733 0 .489.476l-1.467 3.093c-.488.476-.488 1.19-.244 1.665l1.467 3.094c.244.476 0 .713-.49.476l-2.932-1.428z" fill="#D48FC8"/><path d="M12.937 56.223a2.748 2.748 0 00-1.14-1.14l-2.282-.913c-.456-.228-.456-.456 0-.456l2.281-.912a2.749 2.749 0 001.14-1.14l.913-2.281c.228-.456.456-.456.456 0l.912 2.28c.228.457.685.913 1.14 1.141l2.282.912c.456.228.456.456 0 .456l-2.281.913a2.748 2.748 0 00-1.14 1.14l-.913 2.281c-.228.456-.456.456-.456 0l-.912-2.28z" fill="#399ce3"/><path d="M1 143.846h170" stroke="#01283d" stroke-linecap="round" stroke-linejoin="round"/><circle cx="126.048" cy="124.231" r="19.115" fill="#00A32A" stroke="#01283d"/><path d="M117.875 124.639l5.449 5.313 10.897-10.625" stroke="#fff" stroke-width="2" stroke-linecap="round"/></svg>
